public/logos/D8.svg

<?xml version="1.0" encoding="UTF-8"?>
<svg xmlns="http://www.w3.org/2000/svg" xmlns:xlink="http://www.w3.org/1999/xlink" width="176pt" height="59.2pt" viewBox="0 0 176 59.2" version="1.1">
<defs>
<clipPath id="clip1">
  <path d="M 0 0 L 176 0 L 176 59.199219 L 0 59.199219 Z M 0 0 "/>
</clipPath>
</defs>
<g id="surface1">
<g clip-path="url(#clip1)" clip-rule="nonzero">
<path style=" stroke:none;fill-rule:nonzero;fill:rgb(78.747559%,11.759949%,15.016174%);fill-opacity:1;" d="M 176 59.199219 L 0 59.199219 L 0 0.199219 L 176 0.199219 L 176 59.199219 "/>
</g>
<path style=" stroke:none;fill-rule:nonzero;fill:rgb(100%,100%,100%);fill-opacity:1;" d="M 0 18.6875 L 0.03125 5.03125 L 4.886719 5.039062 L 4.882812 7.105469 C 5.527344 6.304688 6.261719 5.734375 6.996094 5.273438 C 7.730469 4.929688 8.648438 4.707031 9.5625 4.710938 C 10.386719 4.710938 11.121094 4.828125 11.761719 5.171875 C 12.40625 5.402344 12.953125 5.863281 13.410156 6.320312 C 13.773438 6.898438 14.046875 7.472656 14.230469 8.160156 C 14.410156 8.847656 14.5 9.996094 14.496094 11.605469 L 14.480469 18.71875 L 9.164062 18.707031 L 9.179688 11.707031 C 9.183594 10.671875 9.09375 9.871094 8.820312 9.523438 C 8.542969 9.066406 8.089844 8.949219 7.355469 8.949219 C 6.710938 8.945312 6.253906 9.171875 5.886719 9.632812 C 5.519531 10.089844 5.332031 10.78125 5.332031 11.695312 L 5.316406 18.699219 L 0 18.6875 "/>
<path style=" stroke:none;fill-rule:nonzero;fill:rgb(100%,100%,100%);fill-opacity:1;" d="M 22.742188 11.96875 C 22.742188 13.226562 22.921875 14.03125 23.289062 14.609375 C 23.652344 15.179688 24.203125 15.414062 24.9375 15.414062 C 25.761719 15.417969 26.3125 15.1875 26.679688 14.617188 C 26.957031 14.039062 27.140625 13.238281 27.144531 11.976562 C 27.144531 10.714844 26.96875 9.792969 26.691406 9.21875 C 26.328125 8.644531 25.777344 8.417969 24.953125 8.414062 C 24.21875 8.414062 23.667969 8.640625 23.300781 9.210938 C 22.933594 9.785156 22.746094 10.703125 22.742188 11.96875 M 17.429688 11.957031 C 17.433594 9.660156 18.078125 7.824219 19.457031 6.566406 C 20.742188 5.304688 22.667969 4.621094 24.960938 4.625 C 27.34375 4.632812 29.175781 5.324219 30.546875 6.589844 C 31.824219 7.855469 32.554688 9.695312 32.550781 11.988281 C 32.546875 14.167969 31.808594 16 30.523438 17.261719 C 29.144531 18.636719 27.3125 19.207031 24.925781 19.199219 C 22.636719 19.195312 20.804688 18.617188 19.433594 17.238281 C 18.058594 15.96875 17.421875 14.132812 17.429688 11.957031 "/>
<path style=" stroke:none;fill-rule:nonzero;fill:rgb(100%,100%,100%);fill-opacity:1;" d="M 35.558594 18.765625 L 35.589844 5.109375 L 40.445312 5.121094 L 40.441406 7.648438 C 40.8125 6.613281 41.363281 5.925781 42.007812 5.46875 C 42.648438 5.011719 43.566406 4.785156 44.664062 4.789062 L 45.121094 4.789062 L 45.109375 10.179688 L 44.011719 10.179688 C 42.910156 10.175781 42.175781 10.402344 41.625 10.863281 C 41.167969 11.320312 40.890625 12.125 40.886719 13.152344 L 40.875 18.777344 L 35.558594 18.765625 "/>
<path style=" stroke:none;fill-rule:nonzero;fill:rgb(100%,100%,100%);fill-opacity:1;" d="M 51.140625 18.800781 L 46.679688 5.136719 L 51.996094 5.148438 L 53.992188 13.53125 L 56.027344 5.15625 L 60.519531 5.167969 L 62.609375 13.550781 L 64.550781 5.175781 L 69.683594 5.1875 L 65.4375 18.832031 L 60.214844 18.820312 L 58.308594 10.898438 L 56.363281 18.8125 L 51.140625 18.800781 "/>
<path style=" stroke:none;fill-rule:nonzero;fill:rgb(100%,100%,100%);fill-opacity:1;" d="M 76.820312 10.484375 L 81.585938 10.492188 C 81.5 9.6875 81.316406 9 80.855469 8.65625 C 80.492188 8.195312 79.851562 7.964844 79.117188 7.960938 C 78.476562 7.960938 77.925781 8.191406 77.464844 8.648438 C 77.101562 9.105469 76.824219 9.679688 76.820312 10.484375 M 81.300781 14.851562 L 86.34375 14.863281 C 85.972656 16.355469 85.144531 17.5 83.953125 18.1875 C 82.667969 18.984375 81.015625 19.328125 79 19.320312 C 76.617188 19.316406 74.878906 18.738281 73.503906 17.359375 C 72.136719 16.09375 71.496094 14.371094 71.5 12.191406 C 71.507812 9.898438 72.152344 8.0625 73.53125 6.6875 C 75 5.429688 76.835938 4.742188 79.214844 4.75 C 81.601562 4.753906 83.433594 5.449219 84.800781 6.941406 C 86.175781 8.324219 86.808594 10.390625 86.804688 12.914062 L 86.804688 13.257812 L 76.816406 13.234375 C 76.8125 14.152344 77.085938 14.84375 77.453125 15.300781 C 77.910156 15.761719 78.550781 15.992188 79.28125 15.996094 C 79.832031 15.996094 80.199219 15.882812 80.570312 15.652344 C 80.933594 15.542969 81.117188 15.199219 81.300781 14.851562 "/>
<path style=" stroke:none;fill-rule:nonzero;fill:rgb(100%,100%,100%);fill-opacity:1;" d="M 94.503906 12.015625 C 94.503906 13.046875 94.683594 13.847656 94.957031 14.421875 C 95.324219 15 95.871094 15.230469 96.605469 15.230469 C 97.339844 15.230469 97.980469 15.003906 98.257812 14.429688 C 98.71875 13.972656 98.808594 13.171875 98.8125 12.023438 C 98.816406 10.988281 98.632812 10.300781 98.269531 9.726562 C 97.902344 9.152344 97.355469 8.921875 96.621094 8.921875 C 95.886719 8.917969 95.339844 9.148438 94.96875 9.71875 C 94.691406 10.175781 94.507812 10.980469 94.503906 12.015625 M 89.996094 20.378906 L 95.3125 20.390625 C 95.402344 20.738281 95.492188 20.964844 95.769531 21.082031 C 96.042969 21.195312 96.316406 21.3125 96.867188 21.3125 C 97.691406 21.316406 98.152344 21.089844 98.425781 20.742188 C 98.703125 20.398438 98.886719 19.597656 98.890625 18.449219 L 98.890625 17.761719 C 98.433594 18.101562 97.882812 18.449219 97.238281 18.675781 C 96.691406 18.90625 95.957031 19.015625 95.132812 19.015625 C 93.296875 19.011719 91.925781 18.433594 90.828125 17.167969 C 89.730469 15.90625 89.183594 14.179688 89.191406 12.117188 C 89.195312 9.9375 89.75 8.101562 90.761719 6.839844 C 91.773438 5.582031 93.148438 4.898438 94.886719 4.902344 C 95.898438 4.902344 96.722656 5.132812 97.457031 5.480469 C 98.183594 5.828125 98.734375 6.289062 99.28125 7.089844 L 99.285156 5.253906 L 104.050781 5.265625 L 104.023438 17.886719 C 104.019531 20.296875 103.375 21.902344 102.273438 22.929688 C 101.078125 23.964844 99.242188 24.414062 96.492188 24.410156 C 94.660156 24.40625 93.101562 24.058594 92.003906 23.367188 C 90.90625 22.675781 90.175781 21.644531 89.996094 20.378906 "/>
<path style=" stroke:none;fill-rule:nonzero;fill:rgb(100%,100%,100%);fill-opacity:1;" d="M 107.824219 -0.00390625 L 113.230469 0.0078125 L 113.222656 3.910156 L 107.8125 3.898438 Z M 107.8125 5.273438 L 113.21875 5.285156 L 113.1875 18.941406 L 107.78125 18.929688 L 107.8125 5.273438 "/>
<path style=" stroke:none;fill-rule:nonzero;fill:rgb(100%,100%,100%);fill-opacity:1;" d="M 126.125 12.886719 C 125.570312 13.117188 124.929688 13.34375 124.011719 13.574219 C 122.730469 13.910156 122.085938 14.371094 122.085938 14.945312 C 122.085938 15.402344 122.175781 15.632812 122.449219 15.863281 C 122.722656 16.09375 123.09375 16.207031 123.550781 16.210938 C 124.464844 16.210938 125.109375 15.984375 125.476562 15.640625 C 125.933594 15.183594 126.121094 14.496094 126.121094 13.578125 L 126.121094 13.121094 Z M 126.566406 18.972656 L 126.203125 17.707031 C 125.558594 18.28125 124.828125 18.738281 124 19.078125 C 123.269531 19.308594 122.351562 19.421875 121.34375 19.417969 C 119.875 19.414062 118.683594 19.066406 117.863281 18.378906 C 117.039062 17.574219 116.585938 16.539062 116.585938 15.160156 C 116.589844 13.785156 117.050781 12.753906 117.878906 12.183594 C 118.699219 11.496094 120.261719 11.039062 122.460938 10.699219 C 122.734375 10.699219 123.105469 10.703125 123.652344 10.589844 C 125.300781 10.476562 126.128906 10.019531 126.132812 9.214844 C 126.132812 8.871094 125.945312 8.640625 125.675781 8.410156 C 125.398438 8.183594 124.851562 8.179688 124.207031 8.179688 C 123.660156 8.179688 123.292969 8.175781 122.925781 8.523438 C 122.648438 8.75 122.464844 8.980469 122.464844 9.4375 L 117.242188 9.425781 C 117.246094 7.933594 117.890625 6.789062 119.082031 5.988281 C 120.273438 5.1875 122.109375 4.84375 124.402344 4.851562 C 125.5 4.851562 126.507812 4.972656 127.421875 5.203125 C 128.433594 5.320312 129.164062 5.667969 129.621094 6.011719 C 130.261719 6.472656 130.71875 6.933594 130.992188 7.507812 C 131.175781 8.082031 131.355469 8.769531 131.355469 9.800781 L 131.335938 17.488281 C 131.335938 17.71875 131.335938 17.953125 131.425781 18.179688 C 131.609375 18.292969 131.699219 18.523438 131.882812 18.640625 L 131.882812 18.984375 L 126.566406 18.972656 "/>
<path style=" stroke:none;fill-rule:nonzero;fill:rgb(100%,100%,100%);fill-opacity:1;" d="M 135.183594 18.992188 L 135.214844 5.335938 L 140.070312 5.347656 L 140.066406 7.414062 C 140.710938 6.609375 141.445312 6.039062 142.179688 5.582031 C 142.910156 5.238281 143.828125 5.011719 144.746094 5.015625 C 145.570312 5.015625 146.304688 5.132812 146.941406 5.476562 C 147.585938 5.707031 148.132812 6.167969 148.589844 6.628906 C 148.957031 7.203125 149.230469 7.777344 149.414062 8.464844 C 149.59375 9.152344 149.683594 10.304688 149.679688 11.910156 L 149.660156 19.023438 L 144.347656 19.011719 L 144.363281 12.011719 C 144.367188 10.980469 144.273438 10.175781 144 9.828125 C 143.726562 9.371094 143.269531 9.253906 142.535156 9.253906 C 141.894531 9.25 141.34375 9.480469 141.066406 9.941406 C 140.699219 10.398438 140.515625 11.085938 140.515625 12.003906 L 140.496094 19.003906 L 135.183594 18.992188 "/>
<path style=" stroke:none;fill-rule:nonzero;fill:rgb(100%,100%,100%);fill-opacity:1;" d="M 153.914062 25.917969 C 154.351562 26.515625 154.699219 27.210938 155.3125 27.511719 C 155.75 27.808594 156.804688 28.109375 157.242188 27.8125 C 159 26.824219 160.140625 26.132812 161.722656 25.039062 C 161.8125 24.945312 161.722656 24.644531 161.636719 24.445312 C 161.546875 24.347656 161.371094 24.246094 161.199219 24.246094 C 161.023438 24.246094 160.320312 24.148438 160.144531 24.246094 C 159.179688 24.941406 158.785156 25.226562 157.730469 25.820312 C 157.378906 26.019531 156.90625 26.261719 156.554688 26.160156 C 155.851562 25.960938 155.226562 25.921875 154.613281 25.621094 C 154.441406 25.523438 154.265625 25.324219 154.089844 25.324219 C 154.003906 25.324219 153.664062 25.488281 153.578125 25.589844 C 153.578125 25.785156 153.824219 25.71875 153.914062 25.917969 "/>
<path style=" stroke:none;fill-rule:nonzero;fill:rgb(100%,100%,100%);fill-opacity:1;" d="M 161.800781 22.507812 C 161.800781 22.339844 161.441406 21.988281 161.527344 21.824219 C 161.695312 21.65625 162.070312 21.367188 162.359375 21.320312 C 162.589844 21.28125 162.800781 21.097656 162.964844 21.265625 C 163.214844 21.515625 163.128906 21.929688 163.046875 22.175781 C 163.046875 22.34375 162.878906 22.507812 162.714844 22.589844 C 162.464844 22.671875 162.296875 22.839844 162.046875 22.835938 C 161.882812 22.835938 161.882812 22.589844 161.800781 22.507812 "/>
<path style=" stroke:none;fill-rule:nonzero;fill:rgb(100%,100%,100%);fill-opacity:1;" d="M 165.796875 22.109375 C 166.875 21.449219 167.789062 20.621094 168.871094 20.042969 C 169.703125 19.546875 170.535156 19.21875 171.367188 18.890625 C 171.945312 18.726562 172.609375 18.644531 173.109375 18.394531 C 173.191406 18.394531 173.671875 17.703125 173.589844 17.703125 C 173.257812 17.535156 172.605469 17.539062 172.273438 17.539062 C 171.527344 17.621094 170.507812 17.972656 169.839844 18.21875 C 168.925781 18.550781 167.996094 19.09375 167.164062 19.589844 C 166.085938 20.167969 165.214844 20.949219 164.300781 21.691406 C 164.214844 21.777344 164.050781 21.941406 164.132812 21.941406 C 164.550781 22.105469 165.046875 22.109375 165.464844 22.109375 C 165.546875 22.109375 165.710938 22.191406 165.796875 22.109375 "/>
<path style=" stroke:none;fill-rule:nonzero;fill:rgb(13.903809%,22.184753%,43.39447%);fill-opacity:1;" d="M 156.40625 28.089844 C 152.539062 30.179688 124.300781 40.800781 120.550781 35.804688 C 117.234375 31.390625 123.445312 25.496094 124.9375 24.1875 L 123 24.167969 C 121.59375 25.242188 114.582031 30.847656 114.53125 35.820312 C 114.480469 41.34375 125.628906 43.4375 157.625 28.558594 L 156.40625 28.089844 "/>
<path style=" stroke:none;fill-rule:nonzero;fill:rgb(13.903809%,22.184753%,43.39447%);fill-opacity:1;" d="M 175.804688 26.464844 C 175.644531 26.394531 173.269531 25.214844 171.445312 24.304688 C 171.695312 23.839844 171.609375 23.605469 171.242188 23.421875 C 170.847656 23.222656 170.289062 23.296875 169.761719 23.46875 C 169.503906 23.339844 169.355469 23.265625 169.355469 23.265625 C 169.355469 23.265625 170.953125 22.292969 172.632812 21.074219 C 174.679688 19.589844 175.742188 18.203125 174.910156 17.710938 C 172.257812 16.144531 167.914062 18.359375 166.53125 19.4375 C 166.191406 19.675781 165.769531 19.96875 164.96875 20.515625 C 164.660156 20.703125 164.429688 20.847656 164.230469 20.910156 C 163.484375 19.863281 162.414062 20.769531 162.394531 20.789062 C 162.316406 20.84375 162.234375 20.90625 162.152344 20.96875 C 161.664062 21.339844 161.441406 21.363281 161.097656 21.359375 C 160.757812 21.359375 156.027344 20.71875 155.214844 20.585938 C 154.398438 20.453125 153.769531 20.320312 153.425781 20.527344 C 153.15625 20.695312 152.472656 21.144531 152.1875 21.335938 C 152.074219 21.402344 152.085938 21.429688 152.164062 21.460938 L 159.433594 24.273438 C 158.695312 24.769531 158.148438 25.128906 157.957031 25.246094 C 157.210938 25.699219 156.867188 25.839844 156.371094 25.710938 C 155.863281 25.574219 154.351562 25.09375 154.136719 25.023438 C 154.011719 24.980469 153.980469 24.992188 153.898438 25.050781 C 153.839844 25.09375 153.011719 25.636719 153.011719 25.636719 L 154.355469 27.246094 L 152.550781 27.035156 C 152.425781 27.019531 152.25 27.078125 152.15625 27.15625 L 151.8125 27.457031 C 151.71875 27.539062 151.742188 27.636719 151.859375 27.671875 L 158.339844 29.617188 C 158.460938 29.65625 158.652344 29.648438 158.765625 29.601562 L 159.132812 29.460938 C 159.246094 29.414062 159.277344 29.296875 159.195312 29.203125 L 158.394531 28.230469 C 160.800781 27.261719 162.464844 26.675781 162.464844 26.675781 C 163.070312 26.382812 163.871094 26.378906 166.054688 26.351562 C 166.980469 26.339844 167.699219 26.261719 170.316406 26.710938 C 173.246094 27.214844 174.132812 27.4375 174.265625 27.445312 C 174.378906 27.453125 174.574219 27.457031 174.886719 27.304688 C 175.261719 27.121094 175.65625 26.898438 175.851562 26.789062 C 176.046875 26.679688 176.066406 26.585938 175.804688 26.464844 M 160.519531 25.40625 C 160.519531 25.40625 159.847656 25.859375 158.175781 26.949219 C 156.65625 27.9375 155.5625 27.09375 155.5625 27.09375 L 153.679688 25.625 C 153.679688 25.625 153.832031 25.527344 153.945312 25.453125 C 154.042969 25.394531 154.09375 25.417969 154.273438 25.492188 C 154.414062 25.554688 156.019531 26.199219 156.171875 26.253906 C 156.34375 26.316406 156.527344 26.355469 156.707031 26.355469 C 156.984375 26.355469 157.238281 26.273438 157.476562 26.164062 C 157.714844 26.054688 157.949219 25.914062 158.230469 25.742188 C 158.339844 25.675781 158.523438 25.558594 158.777344 25.390625 C 159.164062 25.136719 160.085938 24.550781 160.085938 24.550781 C 160.96875 24.886719 161.171875 24.972656 160.519531 25.40625 M 161.949219 22.757812 C 161.949219 22.757812 161.445312 22.023438 161.878906 21.722656 C 162.3125 21.425781 162.660156 21.199219 162.660156 21.199219 C 162.660156 21.199219 162.683594 21.769531 162.960938 22.125 Z M 165.59375 21.988281 C 165.089844 21.917969 164.585938 21.851562 164.078125 21.785156 C 165.167969 21.042969 166.410156 20.210938 166.835938 19.917969 C 167.324219 19.574219 168.214844 19.019531 169.261719 18.554688 C 170.308594 18.09375 171.515625 17.730469 172.613281 17.734375 C 172.855469 17.738281 173.171875 17.769531 173.320312 17.792969 C 173.472656 17.8125 173.542969 17.890625 172.988281 17.929688 C 170.734375 18.136719 166.738281 21.121094 165.59375 21.988281 "/>
</g>
</svg>

<svg xmlns="http://www.w3.org/2000/svg" width="176pt" height="59.2pt" viewBox="0 0 176 59.2"><defs><clipPath id="a"><path d="M0 0h176v59.2H0Zm0 0"/></clipPath></defs><g clip-path="url(#a)"><path d="M176 59.2H0V.2h176z" style="stroke:none;fill-rule:nonzero;fill:#c91e26;fill-opacity:1"/></g><path d="M0 18.688.031 5.03l4.856.008-.004 2.066c.644-.8 1.379-1.37 2.113-1.832a6.15 6.15 0 0 1 2.566-.562c.825 0 1.56.117 2.2.46.644.231 1.191.692 1.648 1.15.363.577.637 1.152.82 1.84q.271 1.03.266 3.444l-.016 7.114-5.316-.012.016-7c.004-1.035-.086-1.836-.36-2.184-.277-.457-.73-.574-1.465-.574-.644-.004-1.101.223-1.468.684-.367.457-.555 1.148-.555 2.062L5.316 18.7zM22.742 11.969c0 1.258.18 2.062.547 2.64.363.57.914.805 1.648.805.825.004 1.375-.226 1.743-.797.277-.578.46-1.379.465-2.64 0-1.262-.176-2.184-.454-2.758-.363-.574-.914-.801-1.738-.805-.734 0-1.285.227-1.652.797q-.552.86-.559 2.758m-5.312-.012c.004-2.297.648-4.133 2.027-5.39 1.285-1.262 3.211-1.946 5.504-1.942 2.383.008 4.215.7 5.586 1.965 1.277 1.265 2.008 3.105 2.004 5.398-.004 2.18-.742 4.012-2.028 5.274-1.378 1.375-3.21 1.945-5.597 1.937-2.29-.004-4.121-.582-5.492-1.96-1.375-1.27-2.012-3.106-2.004-5.282M35.559 18.766l.03-13.657 4.856.012-.004 2.527c.371-1.035.922-1.722 1.567-2.18.64-.456 1.558-.683 2.656-.679h.457l-.012 5.39h-1.097c-1.102-.003-1.836.223-2.387.684-.457.457-.734 1.262-.738 2.29l-.012 5.624zM51.14 18.8 46.68 5.138l5.316.011 1.996 8.383 2.035-8.375 4.493.012 2.09 8.383 1.94-8.375 5.134.011-4.246 13.645-5.223-.012-1.906-7.922-1.946 7.915zM76.82 10.484l4.766.008c-.086-.805-.27-1.492-.73-1.836-.364-.46-1.004-.691-1.739-.695q-.96 0-1.652.687a2.85 2.85 0 0 0-.645 1.836m4.48 4.368 5.044.011c-.371 1.492-1.2 2.637-2.39 3.325-1.286.796-2.938 1.14-4.954 1.132-2.383-.004-4.121-.582-5.496-1.96-1.367-1.266-2.008-2.989-2.004-5.169.008-2.293.652-4.129 2.031-5.504C75 5.43 76.836 4.743 79.215 4.75c2.387.004 4.219.7 5.586 2.191 1.375 1.383 2.008 3.45 2.004 5.973v.344l-9.989-.024c-.004.918.27 1.61.637 2.067.457.46 1.098.691 1.828.695.551 0 .918-.113 1.29-.344.363-.109.546-.453.73-.8M94.504 12.016c0 1.03.18 1.832.453 2.406.367.578.914.808 1.648.808.735 0 1.375-.226 1.653-.8.46-.457.55-1.258.555-2.407.003-1.035-.18-1.722-.543-2.296-.368-.575-.915-.805-1.649-.805-.734-.004-1.281.226-1.652.797-.278.457-.461 1.261-.465 2.297m-4.508 8.363 5.317.012c.09.347.18.574.457.691.273.113.546.23 1.097.23.824.004 1.285-.222 1.559-.57.277-.344.46-1.144.465-2.293v-.687c-.457.34-1.008.687-1.653.914-.547.23-1.281.34-2.105.34-1.836-.004-3.207-.582-4.305-1.848-1.098-1.262-1.644-2.988-1.637-5.05.004-2.18.559-4.016 1.57-5.278 1.012-1.258 2.387-1.942 4.126-1.938 1.011 0 1.836.23 2.57.578.727.348 1.277.81 1.824 1.61l.004-1.836 4.766.012-.028 12.62c-.003 2.41-.648 4.016-1.75 5.044-1.195 1.035-3.03 1.484-5.78 1.48-1.833-.004-3.391-.351-4.49-1.043-1.097-.691-1.827-1.722-2.007-2.988M107.824-.004l5.406.012-.007 3.902-5.41-.012Zm-.011 5.277 5.406.012-.031 13.656-5.407-.011zM126.125 12.887a14.5 14.5 0 0 1-2.113.687c-1.282.336-1.926.797-1.926 1.371 0 .457.09.688.363.918.274.23.645.344 1.102.348.914 0 1.558-.227 1.926-.57.457-.457.644-1.145.644-2.063v-.457Zm.441 6.086-.363-1.266A7.6 7.6 0 0 1 124 19.078c-.73.23-1.648.344-2.656.34-1.469-.004-2.66-.352-3.48-1.04-.825-.804-1.278-1.839-1.278-3.218.004-1.375.465-2.406 1.293-2.976.82-.688 2.383-1.145 4.582-1.485.273 0 .644.004 1.191-.11q2.475-.168 2.48-1.374c0-.344-.187-.574-.456-.805-.278-.226-.824-.23-1.469-.23-.547 0-.914-.004-1.281.343-.278.227-.461.457-.461.915l-5.223-.012c.004-1.492.649-2.637 1.84-3.438 1.191-.8 3.027-1.144 5.32-1.136 1.098 0 2.106.12 3.02.351 1.012.117 1.742.465 2.2.809.64.46 1.097.922 1.37 1.496.184.574.363 1.262.363 2.293l-.02 7.687c0 .23 0 .465.09.692.184.113.274.343.458.46v.344zM135.184 18.992l.03-13.656 4.856.012-.004 2.066c.645-.805 1.38-1.375 2.114-1.832a6.1 6.1 0 0 1 2.566-.566c.824 0 1.559.117 2.195.46.645.231 1.192.692 1.649 1.153.367.574.64 1.148.824 1.836.18.687.27 1.84.266 3.445l-.02 7.113-5.312-.011.015-7c.004-1.032-.09-1.836-.363-2.184-.273-.457-.73-.574-1.465-.574-.64-.004-1.191.226-1.469.687q-.55.686-.55 2.063l-.02 7zM153.914 25.918c.438.598.785 1.293 1.399 1.594.437.297 1.492.597 1.93.3 1.757-.988 2.898-1.68 4.48-2.773.09-.094 0-.394-.086-.594a.65.65 0 0 0-.438-.199c-.176 0-.879-.098-1.054 0-.965.695-1.36.98-2.415 1.574-.351.2-.824.442-1.175.34-.703-.2-1.328-.238-1.942-.539-.172-.098-.347-.297-.523-.297-.086 0-.426.164-.512.266 0 .195.246.129.336.328M161.8 22.508c0-.168-.359-.52-.273-.684.168-.168.543-.457.832-.504.23-.039.442-.222.606-.054.25.25.164.664.082.91 0 .168-.168.332-.332.414-.25.082-.418.25-.668.246-.164 0-.164-.246-.246-.328M165.797 22.11c1.078-.66 1.992-1.489 3.074-2.067.832-.496 1.664-.824 2.496-1.152.578-.164 1.242-.246 1.742-.496.082 0 .563-.692.48-.692-.331-.168-.984-.164-1.316-.164-.746.082-1.765.434-2.433.68-.914.332-1.844.875-2.676 1.37-1.078.579-1.95 1.36-2.863 2.102-.086.086-.25.25-.168.25.418.164.914.168 1.332.168.082 0 .246.082.332 0" style="stroke:none;fill-rule:nonzero;fill:#fff;fill-opacity:1"/><path d="M156.406 28.09c-3.867 2.09-32.105 12.71-35.855 7.715-3.317-4.414 2.894-10.309 4.386-11.617l-1.937-.02c-1.406 1.074-8.418 6.68-8.469 11.652-.05 5.524 11.098 7.618 43.094-7.261z" style="stroke:none;fill-rule:nonzero;fill:#23396f;fill-opacity:1"/><path d="M175.805 26.465c-.16-.07-2.535-1.25-4.36-2.16.25-.465.164-.7-.203-.883-.394-.2-.953-.125-1.48.047-.258-.13-.407-.203-.407-.203s1.598-.973 3.278-2.192c2.047-1.484 3.11-2.87 2.277-3.363-2.652-1.566-6.996.648-8.379 1.727-.34.238-.761.53-1.562 1.078-.309.187-.54.332-.739.394-.746-1.047-1.816-.14-1.835-.12a8 8 0 0 0-.243.179c-.488.37-.71.394-1.054.39-.34 0-5.07-.64-5.883-.773-.817-.133-1.445-.266-1.79-.059-.269.168-.952.618-1.238.809-.113.066-.101.094-.023.125l7.27 2.812c-.739.497-1.286.856-1.477.973-.746.453-1.09.594-1.586.465a80 80 0 0 1-2.234-.688c-.125-.043-.157-.03-.239.028-.058.043-.886.586-.886.586l1.343 1.61-1.804-.212a.6.6 0 0 0-.395.121l-.344.301c-.093.082-.07.18.047.215l6.48 1.945c.122.04.313.031.427-.015l.367-.141c.113-.047.144-.164.062-.258l-.8-.973c2.406-.968 4.07-1.554 4.07-1.554.605-.293 1.406-.297 3.59-.324.925-.012 1.644-.09 4.261.359 2.93.504 3.817.727 3.95.734.113.008.308.012.62-.14.376-.184.77-.407.966-.516s.214-.203-.047-.324m-15.285-1.059s-.672.453-2.344 1.543c-1.52.988-2.613.145-2.613.145l-1.883-1.469.265-.172c.098-.058.149-.035.328.04.141.062 1.747.706 1.899.76.172.063.355.102.535.102.277 0 .531-.082.77-.19.238-.11.472-.25.753-.423q.166-.099.547-.351c.387-.254 1.309-.84 1.309-.84.883.336 1.086.422.434.855m1.43-2.648s-.505-.735-.071-1.035c.434-.297.781-.524.781-.524s.024.57.3.926Zm3.644-.77q-.755-.104-1.516-.203c1.09-.742 2.332-1.574 2.758-1.867a15 15 0 0 1 2.426-1.363c1.047-.461 2.254-.825 3.351-.82.242.003.559.035.707.058.153.02.223.098-.332.137-2.254.207-6.25 3.191-7.394 4.058" style="stroke:none;fill-rule:nonzero;fill:#23396f;fill-opacity:1"/></svg>
